static/img/kroki/03227260e137a0e7521a83f88650c8db.svg

<?xml version="1.0" encoding="us-ascii" standalone="no"?><svg xmlns="http://www.w3.org/2000/svg" xmlns:xlink="http://www.w3.org/1999/xlink" contentStyleType="text/css" height="551px" preserveAspectRatio="none" style="width:604px;height:551px;" version="1.1" viewBox="0 0 604 551" width="604px" zoomAndPan="magnify"><defs/><g><!--class aws_ec2_security_group--><g id="elem_aws_ec2_security_group"><rect codeLine="22" fill="#3D176E" height="39.7891" id="aws_ec2_security_group" rx="2.5" ry="2.5" style="stroke:#000D19;stroke-width:0.5;" width="245" x="7" y="206.57"/><ellipse cx="22" cy="226.4645" fill="#ADD1B2" rx="11" ry="11" style="stroke:#181818;stroke-width:1.0;"/><path d="M24.9688,232.1052 Q24.3906,232.402 23.75,232.5427 Q23.1094,232.6989 22.4063,232.6989 Q19.9063,232.6989 18.5781,231.0583 Q17.2656,229.402 17.2656,226.277 Q17.2656,223.152 18.5781,221.4958 Q19.9063,219.8395 22.4063,219.8395 Q23.1094,219.8395 23.75,219.9958 Q24.4063,220.152 24.9688,220.4489 L24.9688,223.1677 Q24.3438,222.5895 23.75,222.3239 Q23.1563,222.0427 22.5313,222.0427 Q21.1875,222.0427 20.5,223.1208 Q19.8125,224.1833 19.8125,226.277 Q19.8125,228.3708 20.5,229.4489 Q21.1875,230.5114 22.5313,230.5114 Q23.1563,230.5114 23.75,230.2458 Q24.3438,229.9645 24.9688,229.3864 L24.9688,232.1052 Z " fill="#000000"/><text fill="#D9B8FF" font-family="Helvetica" font-size="17" lengthAdjust="spacing" textLength="203" x="41" y="232.3498">aws_ec2_security_group</text></g><!--class aws_ec2_subnet--><g id="elem_aws_ec2_subnet"><rect codeLine="24" fill="#3D176E" height="39.7891" id="aws_ec2_subnet" rx="2.5" ry="2.5" style="stroke:#000D19;stroke-width:0.5;" width="179" x="358" y="206.57"/><ellipse cx="373" cy="226.4645" fill="#ADD1B2" rx="11" ry="11" style="stroke:#181818;stroke-width:1.0;"/><path d="M375.9688,232.1052 Q375.3906,232.402 374.75,232.5427 Q374.1094,232.6989 373.4063,232.6989 Q370.9063,232.6989 369.5781,231.0583 Q368.2656,229.402 368.2656,226.277 Q368.2656,223.152 369.5781,221.4958 Q370.9063,219.8395 373.4063,219.8395 Q374.1094,219.8395 374.75,219.9958 Q375.4063,220.152 375.9688,220.4489 L375.9688,223.1677 Q375.3438,222.5895 374.75,222.3239 Q374.1563,222.0427 373.5313,222.0427 Q372.1875,222.0427 371.5,223.1208 Q370.8125,224.1833 370.8125,226.277 Q370.8125,228.3708 371.5,229.4489 Q372.1875,230.5114 373.5313,230.5114 Q374.1563,230.5114 374.75,230.2458 Q375.3438,229.9645 375.9688,229.3864 L375.9688,232.1052 Z " fill="#000000"/><text fill="#D9B8FF" font-family="Helvetica" font-size="17" lengthAdjust="spacing" textLength="137" x="392" y="232.3498">aws_ec2_subnet</text></g><!--class aws_kms_key--><g id="elem_aws_kms_key"><rect codeLine="26" fill="#3D176E" height="39.7891" id="aws_kms_key" rx="2.5" ry="2.5" style="stroke:#000D19;stroke-width:0.5;" width="158" x="120.5" y="505.94"/><ellipse cx="135.5" cy="525.8345" fill="#ADD1B2" rx="11" ry="11" style="stroke:#181818;stroke-width:1.0;"/><path d="M138.4688,531.4752 Q137.8906,531.772 137.25,531.9127 Q136.6094,532.0689 135.9063,532.0689 Q133.4063,532.0689 132.0781,530.4283 Q130.7656,528.772 130.7656,525.647 Q130.7656,522.522 132.0781,520.8658 Q133.4063,519.2095 135.9063,519.2095 Q136.6094,519.2095 137.25,519.3658 Q137.9063,519.522 138.4688,519.8189 L138.4688,522.5377 Q137.8438,521.9595 137.25,521.6939 Q136.6563,521.4127 136.0313,521.4127 Q134.6875,521.4127 134,522.4908 Q133.3125,523.5533 133.3125,525.647 Q133.3125,527.7408 134,528.8189 Q134.6875,529.8814 136.0313,529.8814 Q136.6563,529.8814 137.25,529.6158 Q137.8438,529.3345 138.4688,528.7564 L138.4688,531.4752 Z " fill="#000000"/><text fill="#D9B8FF" font-family="Helvetica" font-size="17" lengthAdjust="spacing" textLength="116" x="154.5" y="531.7198">aws_kms_key</text></g><!--class aws_rds_cluster--><g id="elem_aws_rds_cluster"><rect codeLine="28" fill="#3D176E" height="39.7891" id="aws_rds_cluster" rx="2.5" ry="2.5" style="stroke:#000D19;stroke-width:0.5;" width="174" x="7.5" y="306.36"/><ellipse cx="22.5" cy="326.2545" fill="#ADD1B2" rx="11" ry="11" style="stroke:#181818;stroke-width:1.0;"/><path d="M25.4688,331.8952 Q24.8906,332.192 24.25,332.3327 Q23.6094,332.4889 22.9063,332.4889 Q20.4063,332.4889 19.0781,330.8483 Q17.7656,329.192 17.7656,326.067 Q17.7656,322.942 19.0781,321.2858 Q20.4063,319.6295 22.9063,319.6295 Q23.6094,319.6295 24.25,319.7858 Q24.9063,319.942 25.4688,320.2389 L25.4688,322.9577 Q24.8438,322.3795 24.25,322.1139 Q23.6563,321.8327 23.0313,321.8327 Q21.6875,321.8327 21,322.9108 Q20.3125,323.9733 20.3125,326.067 Q20.3125,328.1608 21,329.2389 Q21.6875,330.3014 23.0313,330.3014 Q23.6563,330.3014 24.25,330.0358 Q24.8438,329.7545 25.4688,329.1764 L25.4688,331.8952 Z " fill="#000000"/><text fill="#D9B8FF" font-family="Helvetica" font-size="17" lengthAdjust="spacing" textLength="132" x="41.5" y="332.1398">aws_rds_cluster</text></g><!--class aws_rds_instance--><g id="elem_aws_rds_instance"><rect codeLine="30" fill="#3D176E" height="39.7891" id="aws_rds_instance" rx="2.5" ry="2.5" style="stroke:#000D19;stroke-width:0.5;" width="188" x="195.5" y="406.15"/><ellipse cx="210.5" cy="426.0445" fill="#ADD1B2" rx="11" ry="11" style="stroke:#181818;stroke-width:1.0;"/><path d="M213.4688,431.6852 Q212.8906,431.982 212.25,432.1227 Q211.6094,432.2789 210.9063,432.2789 Q208.4063,432.2789 207.0781,430.6383 Q205.7656,428.982 205.7656,425.857 Q205.7656,422.732 207.0781,421.0758 Q208.4063,419.4195 210.9063,419.4195 Q211.6094,419.4195 212.25,419.5758 Q212.9063,419.732 213.4688,420.0289 L213.4688,422.7477 Q212.8438,422.1695 212.25,421.9039 Q211.6563,421.6227 211.0313,421.6227 Q209.6875,421.6227 209,422.7008 Q208.3125,423.7633 208.3125,425.857 Q208.3125,427.9508 209,429.0289 Q209.6875,430.0914 211.0313,430.0914 Q211.6563,430.0914 212.25,429.8258 Q212.8438,429.5445 213.4688,428.9664 L213.4688,431.6852 Z " fill="#000000"/><text fill="#D9B8FF" font-family="Helvetica" font-size="17" lengthAdjust="spacing" textLength="146" x="229.5" y="431.9298">aws_rds_instance</text></g><!--class aws_region--><g id="elem_aws_region"><rect codeLine="32" fill="#3D176E" height="39.7891" id="aws_region" rx="2.5" ry="2.5" style="stroke:#000D19;stroke-width:0.5;" width="137" x="316" y="7"/><ellipse cx="331" cy="26.8945" fill="#ADD1B2" rx="11" ry="11" style="stroke:#181818;stroke-width:1.0;"/><path d="M333.9688,32.5352 Q333.3906,32.832 332.75,32.9727 Q332.1094,33.1289 331.4063,33.1289 Q328.9063,33.1289 327.5781,31.4883 Q326.2656,29.832 326.2656,26.707 Q326.2656,23.582 327.5781,21.9258 Q328.9063,20.2695 331.4063,20.2695 Q332.1094,20.2695 332.75,20.4258 Q333.4063,20.582 333.9688,20.8789 L333.9688,23.5977 Q333.3438,23.0195 332.75,22.7539 Q332.1563,22.4727 331.5313,22.4727 Q330.1875,22.4727 329.5,23.5508 Q328.8125,24.6133 328.8125,26.707 Q328.8125,28.8008 329.5,29.8789 Q330.1875,30.9414 331.5313,30.9414 Q332.1563,30.9414 332.75,30.6758 Q333.3438,30.3945 333.9688,29.8164 L333.9688,32.5352 Z " fill="#000000"/><text fill="#D9B8FF" font-family="Helvetica" font-size="17" lengthAdjust="spacing" textLength="95" x="350" y="32.7798">aws_region</text></g><!--class aws_vpc--><g id="elem_aws_vpc"><rect codeLine="34" fill="#3D176E" height="39.7891" id="aws_vpc" rx="2.5" ry="2.5" style="stroke:#000D19;stroke-width:0.5;" width="112" x="257.5" y="106.78"/><ellipse cx="272.5" cy="126.6745" fill="#ADD1B2" rx="11" ry="11" style="stroke:#181818;stroke-width:1.0;"/><path d="M275.4688,132.3152 Q274.8906,132.612 274.25,132.7527 Q273.6094,132.9089 272.9063,132.9089 Q270.4063,132.9089 269.0781,131.2683 Q267.7656,129.612 267.7656,126.487 Q267.7656,123.362 269.0781,121.7058 Q270.4063,120.0495 272.9063,120.0495 Q273.6094,120.0495 274.25,120.2058 Q274.9063,120.362 275.4688,120.6589 L275.4688,123.3777 Q274.8438,122.7995 274.25,122.5339 Q273.6563,122.2527 273.0313,122.2527 Q271.6875,122.2527 271,123.3308 Q270.3125,124.3933 270.3125,126.487 Q270.3125,128.5808 271,129.6589 Q271.6875,130.7214 273.0313,130.7214 Q273.6563,130.7214 274.25,130.4558 Q274.8438,130.1745 275.4688,129.5964 L275.4688,132.3152 Z " fill="#000000"/><text fill="#D9B8FF" font-family="Helvetica" font-size="17" lengthAdjust="spacing" textLength="70" x="291.5" y="132.5598">aws_vpc</text></g><!--link aws_ec2_security_group to aws_rds_cluster--><g id="link_aws_ec2_security_group_aws_rds_cluster"><path codeLine="36" d="M122.59,246.79 C117.07,262.19 109.31,283.87 103.35,300.53 " fill="none" id="aws_ec2_security_group-to-aws_rds_cluster" style="stroke:#1A83AF;stroke-width:2.0;"/><polygon fill="#1A83AF" points="101.4,304.98,108.2036,297.8588,103.088,300.2736,100.6733,295.158,101.4,304.98" style="stroke:#1A83AF;stroke-width:2.0;"/></g><!--link aws_ec2_security_group to aws_rds_instance--><g id="link_aws_ec2_security_group_aws_rds_instance"><path codeLine="37" d="M147.18,246.56 C161.6,262.32 182.31,285.41 199.5,306.36 C225.8,338.41 254.45,376.86 272.2,401.13 " fill="none" id="aws_ec2_security_group-to-aws_rds_instance" style="stroke:#1A83AF;stroke-width:2.0;"/><polygon fill="#1A83AF" points="275.6,404.79,273.5374,395.1596,272.6574,400.7476,267.0694,399.8676,275.6,404.79" style="stroke:#1A83AF;stroke-width:2.0;"/></g><!--link aws_ec2_subnet to aws_rds_instance--><g id="link_aws_ec2_subnet_aws_rds_instance"><path codeLine="38" d="M432.06,246.77 C403.04,283.07 340.4,361.39 308.71,401.03 " fill="none" id="aws_ec2_subnet-to-aws_rds_instance" style="stroke:#1A83AF;stroke-width:2.0;"/><polygon fill="#1A83AF" points="305,404.66,313.7417,400.1231,308.12,400.7529,307.4903,395.1312,305,404.66" style="stroke:#1A83AF;stroke-width:2.0;"/></g><!--link aws_rds_cluster to aws_kms_key--><g id="link_aws_rds_cluster_aws_kms_key"><path codeLine="39" d="M104.76,346.56 C123.97,382.71 165.33,460.54 186.48,500.33 " fill="none" id="aws_rds_cluster-to-aws_kms_key" style="stroke:#1A83AF;stroke-width:2.0;"/><polygon fill="#1A83AF" points="189.2,504.45,188.5139,494.6251,186.856,500.0335,181.4475,498.3755,189.2,504.45" style="stroke:#1A83AF;stroke-width:2.0;"/></g><!--link aws_rds_cluster to aws_rds_instance--><g id="link_aws_rds_cluster_aws_rds_instance"><path codeLine="40" d="M133.03,346.58 C165.48,362.85 211.89,386.12 245.73,403.1 " fill="none" id="aws_rds_cluster-to-aws_rds_instance" style="stroke:#1A83AF;stroke-width:2.0;"/><polygon fill="#1A83AF" points="250.05,405.77,243.7987,398.1594,245.5807,403.5282,240.2119,405.3102,250.05,405.77" style="stroke:#1A83AF;stroke-width:2.0;"/></g><!--link aws_rds_instance to aws_kms_key--><g id="link_aws_rds_instance_aws_kms_key"><path codeLine="41" d="M271.72,446.37 C257.17,462.17 236.55,484.58 221.06,501.41 " fill="none" id="aws_rds_instance-to-aws_kms_key" style="stroke:#1A83AF;stroke-width:2.0;"/><polygon fill="#1A83AF" points="218.24,504.56,227.2743,500.638,221.6225,500.8778,221.3827,495.226,218.24,504.56" style="stroke:#1A83AF;stroke-width:2.0;"/></g><!--link aws_region to aws_ec2_security_group--><g id="link_aws_region_aws_ec2_security_group"><path codeLine="42" d="M340.38,47.25 C310.42,61.48 270.72,82.51 239.5,106.78 C202.96,135.19 167.89,176.19 147.54,201.81 " fill="none" id="aws_region-to-aws_ec2_security_group" style="stroke:#1A83AF;stroke-width:2.0;"/><polygon fill="#1A83AF" points="143.91,205.4,152.6149,200.793,146.9985,201.4679,146.3236,195.8515,143.91,205.4" style="stroke:#1A83AF;stroke-width:2.0;"/></g><!--link aws_region to aws_ec2_subnet--><g id="link_aws_region_aws_ec2_subnet"><path codeLine="43" d="M390.66,47.19 C402.13,83.2 426.8,160.54 439.53,200.47 " fill="none" id="aws_region-to-aws_ec2_subnet" style="stroke:#1A83AF;stroke-width:2.0;"/><polygon fill="#1A83AF" points="441.32,205.09,442.4101,195.3017,439.8075,200.3242,434.7849,197.7216,441.32,205.09" style="stroke:#1A83AF;stroke-width:2.0;"/></g><!--link aws_region to aws_rds_instance--><g id="link_aws_region_aws_rds_instance"><path codeLine="44" d="M419.67,47.03 C481.15,83.16 597.71,165.11 554.5,246.36 C511.74,326.78 414.87,377.53 350.86,403.6 " fill="none" id="aws_region-to-aws_rds_instance" style="stroke:#1A83AF;stroke-width:2.0;"/><polygon fill="#1A83AF" points="346.54,405.74,356.3822,406.1009,351.1804,403.8781,353.4032,398.6763,346.54,405.74" style="stroke:#1A83AF;stroke-width:2.0;"/></g><!--link aws_region to aws_vpc--><g id="link_aws_region_aws_vpc"><path codeLine="45" d="M370.47,47.21 C359.1,62.88 343,85.04 330.82,101.82 " fill="none" id="aws_region-to-aws_vpc" style="stroke:#1A83AF;stroke-width:2.0;"/><polygon fill="#1A83AF" points="327.5,105.4,336.0191,100.4579,330.4332,101.3508,329.5404,95.7648,327.5,105.4" style="stroke:#1A83AF;stroke-width:2.0;"/></g><!--link aws_vpc to aws_ec2_security_group--><g id="link_aws_vpc_aws_ec2_security_group"><path codeLine="46" d="M277.15,147 C246.53,163.27 202.74,186.55 170.8,203.52 " fill="none" id="aws_vpc-to-aws_ec2_security_group" style="stroke:#1A83AF;stroke-width:2.0;"/><polygon fill="#1A83AF" points="166.78,206.19,176.6049,205.5039,171.1965,203.846,172.8545,198.4375,166.78,206.19" style="stroke:#1A83AF;stroke-width:2.0;"/></g><!--link aws_vpc to aws_ec2_subnet--><g id="link_aws_vpc_aws_ec2_subnet"><path codeLine="47" d="M339.97,147 C361.91,163 393.12,185.78 416.27,202.68 " fill="none" id="aws_vpc-to-aws_ec2_subnet" style="stroke:#1A83AF;stroke-width:2.0;"/><polygon fill="#1A83AF" points="420.08,206.19,415.172,197.6512,416.0425,203.2406,410.453,204.1111,420.08,206.19" style="stroke:#1A83AF;stroke-width:2.0;"/></g><!--link aws_vpc to aws_rds_instance--><g id="link_aws_vpc_aws_rds_instance"><path codeLine="48" d="M311.96,146.73 C307.78,198.54 296.21,341.95 291.51,400.09 " fill="none" id="aws_vpc-to-aws_rds_instance" style="stroke:#1A83AF;stroke-width:2.0;"/><polygon fill="#1A83AF" points="291.06,404.77,295.7669,396.1187,291.4599,399.786,287.7926,395.4789,291.06,404.77" style="stroke:#1A83AF;stroke-width:2.0;"/></g><!--SRC=[bP7BJiCm44Nt-GfBNLTggA3j1gbKgc1J8SeEeSYn9wsLn8x6Jgk0-7UQlZ1s7h38PkPavjpnLd0Wa1Uc8ZdaCQ0ET2faGP7cP8wezWkLAII39A79UE8sbqgQNc15So2FaEt024PTudKhM2f1Qt9ZjHueIpUeIibFumrIgGyjaCQY5XdLUcuCYhWqOCdmMJnD4fTqXmx6F9pSWOSfv81dP3GQyN3c8hshEdDVYRNu01BQHrif0vwcj-98TLhMX2Nf1RtqMnsVAUT2RiYjLNivEQ44_5LVRobN-vfEQARjDTe0WZ9L0Gil5SocF9aqmazjCAilH-XUHy1k8WsiH66gg4OByXbykK0PIp1E8yqF7rHE5RcEM5RM3WqT8RMXae7RWerGqYdk2dQij5WEtmRXV3gUBz-7z-xcV_rpSGgSjFsmdTMZp-Vf1nl7NW_LFVTqDu_ne_VZnz2Tc2_Q0XvUBhYyu5_TsjaViKR6jle6]--></g></svg>

<svg xmlns="http://www.w3.org/2000/svg" width="604" height="551" preserveAspectRatio="none" style="width:604px;height:551px"><rect width="245" height="39.789" x="7" y="206.57" fill="#3D176E" rx="2.5" ry="2.5" style="stroke:#000d19;stroke-width:.5"/><circle cx="22" cy="226.464" r="11" fill="#ADD1B2" style="stroke:#181818;stroke-width:1"/><path d="M24.969 232.105q-.578.297-1.219.438-.64.156-1.344.156-2.5 0-3.828-1.64-1.312-1.657-1.312-4.782t1.312-4.781q1.328-1.657 3.828-1.657.703 0 1.344.157.656.156 1.219.453v2.719q-.625-.579-1.219-.844-.594-.281-1.219-.281-1.343 0-2.031 1.078-.688 1.062-.688 3.156 0 2.094.688 3.172.688 1.062 2.031 1.062.625 0 1.219-.265.594-.282 1.219-.86v2.72Z"/><text x="41" y="232.35" fill="#D9B8FF" font-family="Helvetica" font-size="17" textLength="203">aws_ec2_security_group</text><rect width="179" height="39.789" x="358" y="206.57" fill="#3D176E" rx="2.5" ry="2.5" style="stroke:#000d19;stroke-width:.5"/><circle cx="373" cy="226.464" r="11" fill="#ADD1B2" style="stroke:#181818;stroke-width:1"/><path d="M375.969 232.105q-.578.297-1.219.438-.64.156-1.344.156-2.5 0-3.828-1.64-1.312-1.657-1.312-4.782t1.312-4.781q1.328-1.657 3.828-1.657.703 0 1.344.157.656.156 1.219.453v2.719q-.625-.579-1.219-.844-.594-.281-1.219-.281-1.344 0-2.031 1.078-.688 1.062-.688 3.156 0 2.094.688 3.172.688 1.062 2.031 1.062.625 0 1.219-.265.594-.282 1.219-.86v2.72Z"/><text x="392" y="232.35" fill="#D9B8FF" font-family="Helvetica" font-size="17" textLength="137">aws_ec2_subnet</text><rect width="158" height="39.789" x="120.5" y="505.94" fill="#3D176E" rx="2.5" ry="2.5" style="stroke:#000d19;stroke-width:.5"/><circle cx="135.5" cy="525.835" r="11" fill="#ADD1B2" style="stroke:#181818;stroke-width:1"/><path d="M138.469 531.475q-.578.297-1.219.438-.64.156-1.344.156-2.5 0-3.828-1.64-1.312-1.657-1.312-4.782t1.312-4.781q1.328-1.656 3.828-1.656.703 0 1.344.156.656.156 1.219.453v2.719q-.625-.578-1.219-.844-.594-.281-1.219-.281-1.344 0-2.031 1.078-.688 1.062-.688 3.156 0 2.094.688 3.172.688 1.062 2.031 1.062.625 0 1.219-.265.594-.281 1.219-.86v2.72Z"/><text x="154.5" y="531.72" fill="#D9B8FF" font-family="Helvetica" font-size="17" textLength="116">aws_kms_key</text><rect width="174" height="39.789" x="7.5" y="306.36" fill="#3D176E" rx="2.5" ry="2.5" style="stroke:#000d19;stroke-width:.5"/><circle cx="22.5" cy="326.255" r="11" fill="#ADD1B2" style="stroke:#181818;stroke-width:1"/><path d="M25.469 331.895q-.578.297-1.219.438-.64.156-1.344.156-2.5 0-3.828-1.64-1.312-1.657-1.312-4.782t1.312-4.781q1.328-1.656 3.828-1.656.703 0 1.344.156.656.156 1.219.453v2.719q-.625-.579-1.219-.844-.594-.281-1.219-.281-1.343 0-2.031 1.078-.688 1.062-.688 3.156 0 2.094.688 3.172.688 1.062 2.031 1.062.625 0 1.219-.265.594-.281 1.219-.86v2.72Z"/><text x="41.5" y="332.14" fill="#D9B8FF" font-family="Helvetica" font-size="17" textLength="132">aws_rds_cluster</text><rect width="188" height="39.789" x="195.5" y="406.15" fill="#3D176E" rx="2.5" ry="2.5" style="stroke:#000d19;stroke-width:.5"/><circle cx="210.5" cy="426.045" r="11" fill="#ADD1B2" style="stroke:#181818;stroke-width:1"/><path d="M213.469 431.685q-.578.297-1.219.438-.64.156-1.344.156-2.5 0-3.828-1.64-1.312-1.657-1.312-4.782t1.312-4.781q1.328-1.656 3.828-1.656.703 0 1.344.156.656.156 1.219.453v2.719q-.625-.578-1.219-.844-.594-.281-1.219-.281-1.344 0-2.031 1.078-.688 1.062-.688 3.156 0 2.094.688 3.172.688 1.062 2.031 1.062.625 0 1.219-.265.594-.281 1.219-.86v2.72Z"/><text x="229.5" y="431.93" fill="#D9B8FF" font-family="Helvetica" font-size="17" textLength="146">aws_rds_instance</text><rect width="137" height="39.789" x="316" y="7" fill="#3D176E" rx="2.5" ry="2.5" style="stroke:#000d19;stroke-width:.5"/><circle cx="331" cy="26.895" r="11" fill="#ADD1B2" style="stroke:#181818;stroke-width:1"/><path d="M333.969 32.535q-.578.297-1.219.438-.64.156-1.344.156-2.5 0-3.828-1.64-1.312-1.657-1.312-4.782t1.312-4.781q1.328-1.656 3.828-1.656.703 0 1.344.156.656.156 1.219.453v2.719q-.625-.578-1.219-.844-.594-.281-1.219-.281-1.344 0-2.031 1.078-.688 1.062-.688 3.156 0 2.094.688 3.172.688 1.062 2.031 1.062.625 0 1.219-.265.594-.281 1.219-.86v2.72Z"/><text x="350" y="32.78" fill="#D9B8FF" font-family="Helvetica" font-size="17" textLength="95">aws_region</text><rect width="112" height="39.789" x="257.5" y="106.78" fill="#3D176E" rx="2.5" ry="2.5" style="stroke:#000d19;stroke-width:.5"/><circle cx="272.5" cy="126.674" r="11" fill="#ADD1B2" style="stroke:#181818;stroke-width:1"/><path d="M275.469 132.315q-.578.297-1.219.438-.64.156-1.344.156-2.5 0-3.828-1.64-1.312-1.657-1.312-4.782t1.312-4.781q1.328-1.657 3.828-1.657.703 0 1.344.157.656.156 1.219.453v2.719q-.625-.579-1.219-.844-.594-.281-1.219-.281-1.344 0-2.031 1.078-.688 1.062-.688 3.156 0 2.094.688 3.172.688 1.062 2.031 1.062.625 0 1.219-.265.594-.281 1.219-.86v2.72Z"/><text x="291.5" y="132.56" fill="#D9B8FF" font-family="Helvetica" font-size="17" textLength="70">aws_vpc</text><path fill="none" d="M122.59 246.79c-5.52 15.4-13.28 37.08-19.24 53.74" style="stroke:#1a83af;stroke-width:2"/><path fill="#1A83AF" d="m101.4 304.98 6.804-7.121-5.116 2.415-2.415-5.116.727 9.822z" style="stroke:#1a83af;stroke-width:2"/><path fill="none" d="M147.18 246.56c14.42 15.76 35.13 38.85 52.32 59.8 26.3 32.05 54.95 70.5 72.7 94.77" style="stroke:#1a83af;stroke-width:2"/><path fill="#1A83AF" d="m275.6 404.79-2.063-9.63-.88 5.588-5.588-.88 8.531 4.922z" style="stroke:#1a83af;stroke-width:2"/><path fill="none" d="M432.06 246.77c-29.02 36.3-91.66 114.62-123.35 154.26" style="stroke:#1a83af;stroke-width:2"/><path fill="#1A83AF" d="m305 404.66 8.742-4.537-5.622.63-.63-5.622-2.49 9.529z" style="stroke:#1a83af;stroke-width:2"/><path fill="none" d="M104.76 346.56c19.21 36.15 60.57 113.98 81.72 153.77" style="stroke:#1a83af;stroke-width:2"/><path fill="#1A83AF" d="m189.2 504.45-.686-9.825-1.658 5.409-5.409-1.659 7.753 6.075z" style="stroke:#1a83af;stroke-width:2"/><path fill="none" d="M133.03 346.58c32.45 16.27 78.86 39.54 112.7 56.52" style="stroke:#1a83af;stroke-width:2"/><path fill="#1A83AF" d="m250.05 405.77-6.251-7.61 1.782 5.368-5.37 1.782 9.839.46z" style="stroke:#1a83af;stroke-width:2"/><path fill="none" d="M271.72 446.37c-14.55 15.8-35.17 38.21-50.66 55.04" style="stroke:#1a83af;stroke-width:2"/><path fill="#1A83AF" d="m218.24 504.56 9.034-3.922-5.651.24-.24-5.652-3.143 9.334z" style="stroke:#1a83af;stroke-width:2"/><path fill="none" d="M340.38 47.25c-29.96 14.23-69.66 35.26-100.88 59.53-36.54 28.41-71.61 69.41-91.96 95.03" style="stroke:#1a83af;stroke-width:2"/><path fill="#1A83AF" d="m143.91 205.4 8.705-4.607-5.617.675-.674-5.617-2.414 9.549z" style="stroke:#1a83af;stroke-width:2"/><path fill="none" d="M390.66 47.19c11.47 36.01 36.14 113.35 48.87 153.28" style="stroke:#1a83af;stroke-width:2"/><path fill="#1A83AF" d="m441.32 205.09 1.09-9.788-2.603 5.022-5.022-2.602 6.535 7.368z" style="stroke:#1a83af;stroke-width:2"/><path fill="none" d="M419.67 47.03c61.48 36.13 178.04 118.08 134.83 199.33-42.76 80.42-139.63 131.17-203.64 157.24" style="stroke:#1a83af;stroke-width:2"/><path fill="#1A83AF" d="m346.54 405.74 9.842.36-5.202-2.222 2.223-5.202-6.863 7.064z" style="stroke:#1a83af;stroke-width:2"/><path fill="none" d="M370.47 47.21C359.1 62.88 343 85.04 330.82 101.82" style="stroke:#1a83af;stroke-width:2"/><path fill="#1A83AF" d="m327.5 105.4 8.52-4.942-5.587.893-.893-5.586-2.04 9.635z" style="stroke:#1a83af;stroke-width:2"/><path fill="none" d="M277.15 147c-30.62 16.27-74.41 39.55-106.35 56.52" style="stroke:#1a83af;stroke-width:2"/><path fill="#1A83AF" d="m166.78 206.19 9.825-.686-5.409-1.658 1.659-5.409-6.075 7.753z" style="stroke:#1a83af;stroke-width:2"/><path fill="none" d="M339.97 147c21.94 16 53.15 38.78 76.3 55.68" style="stroke:#1a83af;stroke-width:2"/><path fill="#1A83AF" d="m420.08 206.19-4.908-8.539.87 5.59-5.589.87 9.627 2.079z" style="stroke:#1a83af;stroke-width:2"/><path fill="none" d="M311.96 146.73c-4.18 51.81-15.75 195.22-20.45 253.36" style="stroke:#1a83af;stroke-width:2"/><path fill="#1A83AF" d="m291.06 404.77 4.707-8.651-4.307 3.667-3.667-4.307 3.267 9.291z" style="stroke:#1a83af;stroke-width:2"/></svg>
